assets/join.svg

<svg width="442" height="129" viewBox="0 0 442 129" fill="none" xmlns="http://www.w3.org/2000/svg">
    <path d="M10.894 99.5807L25.0815 101.101H31.1618C38.9875 101.101 44.6456 99.4963 48.1362 96.2872C51.683 93.0781 53.4565 87.6734 53.4565 80.0729V11.9223C53.4565 9.72658 54.2165 7.84054 55.7366 6.26415C57.313 4.68776 59.199 3.89957 61.3947 3.89957H77.1023C79.4106 3.89957 81.3529 4.68776 82.9293 6.26415C84.5057 7.84054 85.2939 9.72658 85.2939 11.9223V79.8196C85.2939 94.2323 80.5084 105.38 70.9375 113.262C61.3666 121.087 48.3895 125 32.0063 125H8.10716C5.91147 125 4.02544 124.24 2.44905 122.72C0.928959 121.143 0.168915 119.257 0.168915 117.062V107.519C0.168915 105.323 0.90081 103.465 2.3646 101.945C3.88469 100.369 5.79887 99.5807 8.10716 99.5807H10.894ZM150.941 31.4328C141.948 39.3886 136.068 50.3999 133.3 64.4667C130.533 78.5335 132.09 89.5448 137.97 97.5006C143.966 105.456 153.305 109.434 165.988 109.434C178.672 109.434 189.51 105.456 198.503 97.5006C207.612 89.5448 213.55 78.5335 216.317 64.4667C219.085 50.3999 217.471 39.3886 211.475 31.4328C205.479 23.477 196.14 19.4991 183.457 19.4991C170.773 19.4991 159.935 23.477 150.941 31.4328ZM233.267 17.7695C243.067 29.2997 246.065 44.8654 242.26 64.4667C238.455 84.0679 229.404 99.6337 215.107 111.164C200.925 122.694 183.341 128.459 162.356 128.459C141.371 128.459 125.979 122.694 116.178 111.164C106.493 99.6337 103.553 84.0679 107.357 64.4667C111.162 44.8654 120.156 29.2997 134.338 17.7695C148.52 6.23937 166.104 0.474294 187.089 0.474294C208.073 0.474294 223.466 6.23937 233.267 17.7695ZM259.851 117.231V11.9223C259.851 9.72658 260.639 7.84054 262.215 6.26415C263.792 4.68776 265.678 3.89957 267.873 3.89957H283.581C285.889 3.89957 287.804 4.68776 289.324 6.26415C290.9 7.84054 291.688 9.72658 291.688 11.9223V117.062C291.688 119.257 290.872 121.143 289.239 122.72C287.663 124.24 285.777 125 283.581 125H267.873C265.678 125 263.792 124.268 262.215 122.804C260.639 121.284 259.851 119.426 259.851 117.231ZM315.925 117.062V11.9223C315.925 9.72658 316.685 7.84054 318.205 6.26415C319.725 4.68776 321.583 3.89957 323.779 3.89957H348.607C350.578 3.89957 352.661 4.68776 354.856 6.26415C357.052 7.84054 358.854 9.72658 360.261 11.9223L411.269 90.3757V11.7534C411.269 9.55768 412.029 7.69979 413.549 6.1797C415.125 4.65961 417.011 3.89957 419.207 3.89957H433.732C435.928 3.89957 437.786 4.65961 439.306 6.1797C440.882 7.69979 441.67 9.61398 441.67 11.9223V117.062C441.67 119.257 440.882 121.143 439.306 122.72C437.786 124.24 435.928 125 433.732 125H405.695C403.499 125 401.247 124.24 398.939 122.72C396.631 121.143 394.801 119.257 393.45 117.062L346.749 44.6042V117.062C346.749 119.257 345.961 121.143 344.385 122.72C342.865 124.24 341.007 125 338.811 125H323.948C321.752 125 319.866 124.24 318.29 122.72C316.713 121.143 315.925 119.257 315.925 117.062Z" fill="#FE610B"/>
</svg>

<svg width="442" height="129" fill="none" xmlns="http://www.w3.org/2000/svg"><path d="m10.894 99.58 14.187 1.521h6.08c7.826 0 13.485-1.605 16.975-4.814 3.547-3.209 5.32-8.614 5.32-16.214v-68.15c0-2.196.76-4.082 2.28-5.659C57.314 4.688 59.2 3.9 61.396 3.9h15.707c2.309 0 4.25.788 5.827 2.364 1.577 1.577 2.365 3.463 2.365 5.658V79.82c0 14.412-4.786 25.56-14.356 33.442C61.367 121.087 48.389 125 32.005 125H8.107c-2.196 0-4.082-.76-5.658-2.28-1.52-1.577-2.28-3.463-2.28-5.658v-9.543c0-2.196.732-4.054 2.196-5.574 1.52-1.576 3.434-2.364 5.742-2.364h2.787Zm140.047-68.147c-8.993 7.956-14.873 18.967-17.641 33.034-2.767 14.067-1.21 25.078 4.67 33.034 5.996 7.955 15.335 11.933 28.018 11.933 12.684 0 23.522-3.978 32.515-11.933 9.109-7.956 15.047-18.968 17.814-33.034 2.768-14.067 1.154-25.078-4.842-33.034-5.996-7.956-15.335-11.934-28.018-11.934-12.684 0-23.522 3.978-32.516 11.934Zm82.326-13.663c9.8 11.53 12.798 27.095 8.993 46.697-3.805 19.6-12.856 35.167-27.153 46.697-14.182 11.53-31.766 17.295-52.751 17.295s-36.377-5.765-46.178-17.295c-9.685-11.53-12.625-27.096-8.821-46.697 3.805-19.602 12.799-35.167 26.981-46.697C148.52 6.24 166.104.474 187.089.474c20.984 0 36.377 5.765 46.178 17.296Zm26.584 99.461V11.922c0-2.195.788-4.081 2.364-5.658 1.577-1.576 3.463-2.364 5.658-2.364h15.708c2.308 0 4.223.788 5.743 2.364 1.576 1.577 2.364 3.463 2.364 5.658v105.14c0 2.195-.816 4.081-2.449 5.658-1.576 1.52-3.462 2.28-5.658 2.28h-15.708c-2.195 0-4.081-.732-5.658-2.196-1.576-1.52-2.364-3.378-2.364-5.573Zm56.074-.169V11.922c0-2.195.76-4.081 2.28-5.658 1.52-1.576 3.378-2.364 5.574-2.364h24.828c1.971 0 4.054.788 6.249 2.364 2.196 1.577 3.998 3.463 5.405 5.658l51.008 78.454V11.753c0-2.195.76-4.053 2.28-5.573 1.576-1.52 3.462-2.28 5.658-2.28h14.525c2.196 0 4.054.76 5.574 2.28 1.576 1.52 2.364 3.434 2.364 5.742v105.14c0 2.195-.788 4.081-2.364 5.658-1.52 1.52-3.378 2.28-5.574 2.28h-28.037c-2.196 0-4.448-.76-6.756-2.28-2.308-1.577-4.138-3.463-5.489-5.658l-46.701-72.458v72.458c0 2.195-.788 4.081-2.364 5.658-1.52 1.52-3.378 2.28-5.574 2.28h-14.863c-2.196 0-4.082-.76-5.658-2.28-1.577-1.577-2.365-3.463-2.365-5.658Z" fill="#FE610B"/></svg>
